editor/icons/icon_auto_end.svg

<svg height="16" viewBox="0 0 16 16" width="16" xmlns="http://www.w3.org/2000/svg"><g fill="#e0e0e0"><path d="m13.999798 14c.552262-.000055.999945-.447738 1-1v-10c-.000055-.5522619-.447738-.9999448-1-1h-8.0000004c-.3038627-.0001753-.5913245.1378063-.78125.375l-4 5c-.29139692.3649711-.29139692.8830289 0 1.248l4 5c.189538.237924.4770584.376652.78125.37695h8.0000004zm-1-2h-6.5195004l-3.1992-4 3.1992-4h6.5195004zm-6.0000004-2v-4l-2 2z" fill-rule="evenodd"/><path d="m15.129502-36.414393h20.292969v5.683593h-12.773437v5.429688h12.011718v5.683594h-12.011718v6.679687h13.203125v5.6835938h-20.722657z" transform="matrix(.20475474 0 0 .20475474 4.790386 12.365563)"/></g></svg>

<?xml version="1.0" encoding="UTF-8" standalone="no"?>
<svg
   xmlns:dc="http://purl.org/dc/elements/1.1/"
   xmlns:cc="http://creativecommons.org/ns#"
   xmlns:rdf="http://www.w3.org/1999/02/22-rdf-syntax-ns#"
   xmlns:svg="http://www.w3.org/2000/svg"
   xmlns="http://www.w3.org/2000/svg"
   xmlns:sodipodi="http://sodipodi.sourceforge.net/DTD/sodipodi-0.dtd"
   xmlns:inkscape="http://www.inkscape.org/namespaces/inkscape"
   width="16"
   height="16"
   version="1.1"
   viewBox="0 0 16 16"
   id="svg6"
   sodipodi:docname="icon_auto_end.svg"
   inkscape:version="0.92.3 (2405546, 2018-03-11)">
  <metadata
     id="metadata12">
    <rdf:RDF>
      <cc:Work
         rdf:about="">
        <dc:format>image/svg+xml</dc:format>
        <dc:type
           rdf:resource="http://purl.org/dc/dcmitype/StillImage" />
        <dc:title></dc:title>
      </cc:Work>
    </rdf:RDF>
  </metadata>
  <defs
     id="defs10" />
  <sodipodi:namedview
     pagecolor="#ffffff"
     bordercolor="#666666"
     borderopacity="1"
     objecttolerance="10"
     gridtolerance="10"
     guidetolerance="10"
     inkscape:pageopacity="0"
     inkscape:pageshadow="2"
     inkscape:window-width="1273"
     inkscape:window-height="766"
     id="namedview8"
     showgrid="false"
     inkscape:zoom="41.7193"
     inkscape:cx="12.08616"
     inkscape:cy="6.9898672"
     inkscape:window-x="539"
     inkscape:window-y="208"
     inkscape:window-maximized="0"
     inkscape:current-layer="svg6" />
  <path
     inkscape:connector-curvature="0"
     id="path2"
     style="color:#000000;text-indent:0;text-decoration:none;text-decoration-line:none;text-decoration-style:solid;text-decoration-color:#000000;text-transform:none;white-space:normal;isolation:auto;mix-blend-mode:normal;solid-color:#000000;fill:#e0e0e0;fill-rule:evenodd;color-rendering:auto;image-rendering:auto;shape-rendering:auto"
     d="m 13.999798,14 c 0.552262,-5.5e-5 0.999945,-0.447738 1,-1 V 3 c -5.5e-5,-0.5522619 -0.447738,-0.9999448 -1,-1 H 5.9997976 C 5.6959349,1.9998247 5.4084731,2.1378063 5.2185476,2.375 l -4,5 c -0.29139692,0.3649711 -0.29139692,0.8830289 0,1.248 l 4,5 c 0.189538,0.237924 0.4770584,0.376652 0.78125,0.37695 h 8.0000004 z m -1,-2 H 6.4802976 l -3.1992,-4 3.1992,-4 H 12.999798 Z M 6.9997976,10 V 6 l -2,2 z"
     sodipodi:nodetypes="cccccccccccccccccccccc" />
  <g
     aria-label="E"
     style="font-style:normal;font-variant:normal;font-weight:bold;font-stretch:normal;font-size:40px;line-height:1.25;font-family:sans-serif;-inkscape-font-specification:'sans-serif Bold';letter-spacing:0px;word-spacing:0px;fill:#e0e0e0;fill-opacity:1;stroke:none"
     id="text829"
     transform="matrix(0.20475474,0,0,0.20475474,4.7903856,12.365563)">
    <path
       d="M 15.129502,-36.414393 H 35.422471 V -30.7308 H 22.649034 v 5.429688 h 12.011718 v 5.683594 H 22.649034 v 6.679687 h 13.203125 v 5.6835938 H 15.129502 Z"
       style="fill:#e0e0e0;fill-opacity:1"
       id="path831"
       inkscape:connector-curvature="0" />
  </g>
</svg>
